X: 1716
T: the Jolly Little Boy   #1
R: hornpipe, reel
%S: s:2 b:16(8+8)
B: O'Neill's 1850 #1716
O: Cronin
Z: Bob Safranek, rjs@gsp.org
Z: A.LEE WORMAN
M: 2/4
L: 1/16
K: D
((3ABc) |\
dcdA GFED | GEFD EDB,A, | DFEG FAGB | Adce dfeg ||\
fdAF GFED | DEFD EDB,A, | DFEG FAGB | Adce d2 :|
|: ((3ABc) |\
dcdf edBA | dfaf gfge | dcdf ecAc | BAGA A2((3ABc) ||\
dcdf edBA | dfaf gfge | afge fdec | Agfe d2 :|
